static/assets/img/icons/theme/design/pencil.svg

<svg height="24" viewBox="0 0 24 24" width="24" xmlns="http://www.w3.org/2000/svg"><g fill="none" fill-rule="evenodd"><path d="m0 0h24v24h-24z" opacity="0"/><g fill="#000"><path d="m10.5 8-4.5 11c.0352633.1332661.06268417.2312688.08226261.2940083.35491384 1.1373278 1.99415964 1.7059917 2.91773739 1.7059917 1.5 0 2-2 3.5-2s2.0917308 1.9843119 3.5 2c.9388462.0104588 1.9388462-.6562079 3-2l-4.5-11z"/><path d="m11.3 6 1.2-3 1.2 3zm3.2 2h-4z"/></g></g></svg>

<svg width="24px" height="24px" viewBox="0 0 24 24" version="1.1" xmlns="http://www.w3.org/2000/svg" xmlns:xlink="http://www.w3.org/1999/xlink">
    <title>Icon For Pencil</title>
    <g stroke="none" stroke-width="1" fill="none" fill-rule="evenodd">
        <rect opacity="0" x="0" y="0" width="24" height="24"></rect>
        <path d="M10.5,8 L6,19 C6.0352633,19.1332661 6.06268417,19.2312688 6.08226261,19.2940083 C6.43717645,20.4313361 8.07642225,21 9,21 C10.5,21 11,19 12.5,19 C14,19 14.5917308,20.9843119 16,21 C16.9388462,21.0104588 17.9388462,20.3437921 19,19 L14.5,8 L10.5,8 Z" fill="#000000"></path>
        <path d="M11.3,6 L12.5,3 L13.7,6 L11.3,6 Z M14.5,8 L10.5,8 L14.5,8 Z" fill="#000000"></path>
    </g>
</svg>
